X:1
T:Title
%%score { ( 1 4 ) | ( 2 3 ) }
L:1/8
Q:1/4=100
M:6/8
K:A
V:1 treble nm="Grand Piano"
V:4 treble 
V:2 bass 
V:3 bass 
V:1
 [Ec]2 [Ec] [^D=c]2 [Dc] | [Ec]2 [CA] [Fd]2 [Ec] | B2 B ^A2 A | B2 E e2 d | c2 c [=Ge]2 [Ge] | %5
w: J.~S.~Fearis * * *|||||
 [Fd]2 [DF] [EFc]2 [DFB] | [CEA]3 [EGc]2 [DGB] | A6 | c2 c z2 E | d2 d z2 D | A2 B c[=Ge][Fd] | %11
w: ||||||
[M:13/16] [B,EG][Gc]3/2[DGB][CEA]/-[CEA]/-[CEA]-<[CEA] |] %12
w: |
V:2
 [A,,A,]2 [A,,A,] [A,,F,]2 [A,,F,] | [A,,E,]2 [A,,E,] [A,,A,]2 [A,,A,] | %2
 [E,G,D]2 [E,G,D] [E,=G,C]2 [E,G,C] | z3 E3 | [A,E]2 [A,E] [C,A,]2 [C,A,] | [D,A,]2 D, D,2 D, | %6
 E,3 E,2 E, | [A,CE]6 | z3 .D3 | [B,D]2 [B,D] [E,CE]2 [^E,B,] | %10
 [F,A,C]2 [E,G,E] [A,E][C,^A,][D,B,] |[M:13/16] z E3/2E,A,/-A,/-A,-<A, |] %12
V:3
 x6 | x6 | x6 | [E,G,D]2 [B,D] [A,C]2 [G,B,] | x6 | x6 | x6 | x6 | [A,E]2 [A,E] F,2- [F,C] | x6 | %10
 x6 |[M:13/16] E,/-E,-<E, z/ z/ z/ z/ z/ z/ z |] %12
V:4
 x6 | x6 | x6 | x6 | x6 | x6 | x6 | x6 | z3 F3 | z3 G3 | x6 |[M:13/16] x13/2 |] %12

